X:304
T:Reel Of Bogie, The  
S:Ennis
B:ONMI.1449
F:file ID: onmi.reels/304rbog
Z:Brennan/Black
Q:180
N:|^d| replaced in m.14
Q:180
R:reel
M:C|
L:1/8
K:D
"E dorian"
dc|BE~E2 BAFA|BFAF DEFA|BE~E2 BAFA|dcdf e2dc|
BE~E2 BAFA|BFAF DEFA|dcde fdec|dBAF E2||
FE|D2 (3ABc dcdA|(3Bcd AF BFAF|D2 (3ABc dcde|fdcA BFAF|
D2 (3ABc dcdf|edef g2fg|afge fdec|dBAF E4|]

